X: 128
T: Xiu hebao
%%abc-version 2.0
%%abcx-abcm2ps-target-version 5.9.1 (29 Sep 2008)
%%abc-creator hum2abc beta
%%abcx-conversion-date 2013/10/02 07:52:29
%%abc-edited-by Helmut Schaffrath
%%humdrum-veritas 822721710
%%humdrum-veritas-data 4085025832
%%continueall 1
%%barnumbers 0
L: 1/8
M: 2/4
K: F
A< c A G [I:setbarnb 1]| 
A/ G/ F D C | 
c3f | 
d c G A | 
c2G A | 
c f A G | 
F F F A | 
G4 | 
D F G G | 
c2d3/ c/ | 
c A c A | 
G/ A/ G/ F/ D C | 
c f c3/ A/ | 
A G F D | 
C3D | 
C4 | 
F> G A c | 
G/ A/ G/ F/ D C | 
c f c3/ A/ | 
A G F D | 
C3D | 
C4 |]  



